!! Isochronous pitch passage.
!! Inner-voice line.
!! From Franck, Symphony in d minor; 2nd movement, 10 measures after "C"
!! Second Violin
!! 3/4 meter
**kern	**metpos
*M3/4	*M3/4
*tb16	*tb16
=1	=1
16gg	1
16b-	4
16b-	3
16gg	4
16gg	2
16b-	4
16b-	3
16gg	4
16gg-	2
16a	4
16a	3
16gg-	4
=2	=2
16ff	1
16b-	4
16b-	3
16ff	4
16ff	2
16b-	4
16b-	3
16ff	4
16een	2
16g	4
16g	3
16ee	4
=3	=3
16ee-	1
16f	4
16f	3
16ee-	4
16dd	2
16f	4
16f	3
16dd	4
16dd-	2
16f	4
16f	3
16dd-	4
=4	=4
16cc	1
16f	4
16f	3
16cc	4
16a	2
16e-	4
16en	3
16a	4
16a-	2
16f	4
16f	3
16an	4
=5	=5
16b-	1
16g-	4
16g-	3
16b-	4
16b-	2
16d-	4
16d-	3
16b-	4
16g-	2
16b-	4
16b-	3
16dd-	4
=6	=6
16ddn	1
16a-	4
16a-	3
16dd	4
16dd	2
16a-	4
16an	3
16dd	4
16dd-	2
16b-	4
16b-	3
16ddn	4
=7	=7
16ee-	1
16cc-	4
16cc-	3
16ee-	4
16ee-	2
16gg-	4
16ee-	3
16cc-	4
16g-	2
16e-	4
16e-	3
16g-	4
=8	=8
16g-	1
16e-	4
16e-	3
16g-	4
16g-	2
16ee-	4
16ee-	3
16g-	4
16g-	2
16f	4
16f	3
16f	4
=9	=9
16f	1
16d-	4
16d-	3
16f	4
16f	2
16dd-	4
16dd-	3
16f	4
16en	2
16f	4
16f	3
16f	4
=10	=10
16e-	1
16g-	4
16an	3
16cc	4
16cc	2
16b-	4
16b-	3
16f	4
16f	2
16f#	4
16f#	3
16gn	4
=11	=11
16g#	1
16b-	4
16a	3
16f#	4
16d	2
16f#	4
16a	3
16dd	4
16dd	2
16b-	4
16f#	3
16d	4
=12	=12
16f#	1
16a	4
16cc	3
16a	4
16f#	2
16e	4
16e	3
16f#	4
16f#	2
16d	4
16d	3
16f#	4
=13	=13
16f#	1
16a	4
16cc	3
16a	4
16f#	2
16e	4
16e	3
16f#	4
16f#	2
16g	4
16g	3
16g	4
=14	=14
16g	1
16b-	4
16dd	3
16b-	4
16g	2
16d	4
16d	3
16g	4
16f#	2
16g	4
16g	3
16g	4
=15	=15
16g	1
16b-	4
16dd	3
16b-	4
16g	2
16d	4
16g	3
16b-	4
16cc#	2
16dd	4
16dd	3
16b-	4
=16	=16
*-	*-
